F[ERK2
CUT[ONDS LIEBE DAS HALTE MER]
REG[Europa, Mitteleuropa, Schweiz, Appenzell]
KEY[E0625  16  G 2/4]
MEL[-3_  -4_-6-4-3_-5-3  -2_-2_-5__
    3_-532-4-2-7  1_-3_-5__
    -4_-6_-3_-5_  -2_-2-2-5__
    3_-532-4-2-7  1__0_
    -3-4  -5_1-3-5_-3-5  -4_-61#2__
    -4_-72-5_-72  3_-5-71__
    -5_1-3-5_-3-5  -4_-61#2__
    3_-62-5_-72  1__3_ //] >>
FCT[Liebes - Lied]
